X: 22018
T: Kitty's Wedding
R: hornpipe
M: 4/4
K: Dmajor
|:(3gfe|d2 B>d A2 F>A|B>AF>A D2 E>D|(3Bcd A>B D>FB>F|A>FD>F E2 f>e|
(3ded B>d A2 (3FGA|B>AF>A D2 E>D|B>dA>B D>FB>F|A>FE>F D2:|
|:f>g|a>fe>d b>af>d|A>df>d e>d (3Bcd|D>FA>d F>Ad>e|(3fgf (3def e2 f>g|
a2 (3fed b2 a>f|A>df>d e>dB>d|D>FA>d F>Ad>f|e>AB>c d2:|

